src/Pure/16/symbolic/actions/focus-windows-symbolic.svg

<svg width="16" height="16" version="1.1" xmlns="http://www.w3.org/2000/svg">
 <path d="m3 6c-1.108 0-2 0.892-2 2v5c0 1.108 0.892 2 2 2h7c1.108 0 2-0.892 2-2v-2h-1v2c0 0.554-0.446 1-1 1h-7c-0.554 0-1-0.446-1-1v-4c0-0.554 0.446-1 1-1h1v-2h-1z" fill="#363636" opacity=".35" stroke-linecap="round" stroke-linejoin="round" stroke-width="2"/>
 <path d="m7 1c-1.108 0-2 0.892-2 2v5c0 1.108 0.892 2 2 2h7c1.108 0 2-0.892 2-2v-5c0-1.108-0.892-2-2-2h-7zm0 2h7c0.554 0 1 0.446 1 1v4c0 0.554-0.446 1-1 1h-7c-0.554 0-1-0.446-1-1v-4c0-0.554 0.446-1 1-1z" fill="#363636" stroke-linecap="round" stroke-linejoin="round" stroke-width="2"/>
</svg>

<?xml version="1.0" encoding="UTF-8" standalone="no"?>
<svg
   width="16"
   height="16"
   version="1.1"
   id="svg2"
   sodipodi:docname="focus-windows-symbolic.svg"
   inkscape:version="1.4.2 (ebf0e940d0, 2025-05-08)"
   xmlns:inkscape="http://www.inkscape.org/namespaces/inkscape"
   xmlns:sodipodi="http://sodipodi.sourceforge.net/DTD/sodipodi-0.dtd"
   xmlns="http://www.w3.org/2000/svg"
   xmlns:svg="http://www.w3.org/2000/svg">
  <defs
      id="defs2">
      <style id="current-color-scheme" type="text/css">
          .ColorScheme-Text { color:#363636; }
      </style>
  </defs>
  <sodipodi:namedview
     id="namedview2"
     pagecolor="#ffffff"
     bordercolor="#000000"
     borderopacity="0.25"
     inkscape:showpageshadow="2"
     inkscape:pageopacity="0.0"
     inkscape:pagecheckerboard="0"
     inkscape:deskcolor="#d1d1d1"
     inkscape:zoom="49.6875"
     inkscape:cx="8"
     inkscape:cy="8"
     inkscape:window-width="1920"
     inkscape:window-height="1010"
     inkscape:window-x="0"
     inkscape:window-y="0"
     inkscape:window-maximized="1"
     inkscape:current-layer="svg2" />
  <path
     id="path1"
     d="M 3 6 C 1.892 6 1 6.892 1 8 L 1 13 C 1 14.108 1.892 15 3 15 L 10 15 C 11.108 15 12 14.108 12 13 L 12 11 L 11 11 L 11 13 C 11 13.554 10.554 14 10 14 L 3 14 C 2.446 14 2 13.554 2 13 L 2 9 C 2 8.446 2.446 8 3 8 L 4 8 L 4 6 L 3 6 z "
     style="fill:currentColor;opacity:0.35"
     class="ColorScheme-Text"/>
  <path
     id="path2"
     style="fill:currentColor"
     class="ColorScheme-Text"
     d="M 7 1 C 5.892 1 5 1.892 5 3 L 5 8 C 5 9.108 5.892 10 7 10 L 14 10 C 15.108 10 16 9.108 16 8 L 16 3 C 16 1.892 15.108 1 14 1 L 7 1 z M 7 3 L 14 3 C 14.554 3 15 3.446 15 4 L 15 8 C 15 8.554 14.554 9 14 9 L 7 9 C 6.446 9 6 8.554 6 8 L 6 4 C 6 3.446 6.446 3 7 3 z " />
</svg>
